!!!OTL: 514. Was ich moechte.
!!!ARE: Europa, Mitteleuropa, Deutschland, Ober- Hessen; Westfalen; Rheinland
!!!SCT: E0514
!!!TXL: @@DE
!!!YEM: Copyright 1995, estate of Helmut Schaffrath.
**kern	**text
*ICvox	*
*M4/4	*
*met(c)	*
*k[f#]	*
*G:	*
=1	=1
!LO:TX:a:t=Mäßig bewegt.	!
!LO:TX:a:t=Aus Oberheſſen, Weſtfalen und vom Rhein. 1839-90.	!
{4g	Ach,
8bL	was
8aJ	.
4g	wird
4d	mein
=2	=2
4b	Schätʒchen
8ddL	.
8ccJ	.
4b	den-
4b}	-ken,
=3	=3
{4.a	weil
8g	ich
4a	bin
8ddL	ſo
8ccJ	.
=4	=4
4b/	weit
4a	von
2g}	ihr!
=5	=5
{4g	weil
8bL	ich
8aJ	.
2g	bin,
=6	=6
4b	weil
8ddL	ich
8ccJ	.
2b}	bin,
=7	=7
{4.a	weil
8g	ich
4a	bin
8ddL	ſo
8ccJ	.
=8	=8
4b	weit
4a	von
2g}	ihr.
==	==
!!!AGN: Liebes - Lied
!!!ONB: ESAC (Essen Associative Code) Database: ERK1
!!!AMT: simple quadruple
!!!AIN: vox
!!!EED: Helmut Schaffrath
!!!EEV: 1.0
!!!GTL: Liebeslieder [Neuere (aus dem 18. bis 19. Jahrh.) - Liebeslust]
!!!URL-scan: https://rosdok.uni-rostock.de/mcrviewer/recordIdentifier/rosdok_ppn745177662/iview2/phys_0340.iview2?x=-250.1417780126858&y=26.14536131499335&scale=0.5392104374602399&rotation=0&layout=singlePageLayout
!!!ENC: Anna Maria Matuszewska
!!!EEV: 2024/10/12
*-	*-
